src/pos-icons/image-off-outline.svg

<svg height="24" viewBox="0 0 24 24" width="24" xmlns="http://www.w3.org/2000/svg"><path d="m22 20.7-18.7-18.7-1.3 1.3 1 1v14.7c0 1.1.9 2 2 2h14.7l1 1zm-17-1.7v-12.7l7.6 7.6-1.5 1.9-2.1-2.7-3 3.9h9.7l2 2zm3.8-14-2-2h12.2c1.1 0 2 .9 2 2v12.2l-2-2v-10.2z"/></svg>

<?xml version="1.0" encoding="UTF-8"?><!DOCTYPE svg PUBLIC "-//W3C//DTD SVG 1.1//EN" "http://www.w3.org/Graphics/SVG/1.1/DTD/svg11.dtd"><svg xmlns="http://www.w3.org/2000/svg" xmlns:xlink="http://www.w3.org/1999/xlink" version="1.1" id="mdi-image-off-outline" width="24" height="24" viewBox="0 0 24 24"><path d="M22 20.7L3.3 2L2 3.3L3 4.3V19C3 20.1 3.9 21 5 21H19.7L20.7 22L22 20.7M5 19V6.3L12.6 13.9L11.1 15.8L9 13.1L6 17H15.7L17.7 19H5M8.8 5L6.8 3H19C20.1 3 21 3.9 21 5V17.2L19 15.2V5H8.8" /></svg>
